assets/img/Schneider_Electric.svg

<?xml version="1.0" encoding="UTF-8" standalone="no"?>
<!-- Created with Inkscape (http://www.inkscape.org/) -->
<svg
   xmlns:svg="http://www.w3.org/2000/svg"
   xmlns="http://www.w3.org/2000/svg"
   version="1.0"
   width="188.74001"
   height="57"
   id="svg2"
   xml:space="preserve"><defs
     id="defs5"><clipPath
       id="clipPath17"><path
         d="M 0,842 L 595,842 L 595,0.11 L 0,0.11 L 0,842 z"
         id="path19" /></clipPath><clipPath
       id="clipPath23"><path
         d="M 0,841.98 L 595.2,841.98 L 595.2,0 L 0,0 L 0,841.98 z"
         id="path25" /></clipPath><clipPath
       id="clipPath33"><path
         d="M 0,856.173 L 609.449,856.173 L 609.449,-14.063 L 0,-14.063 L 0,856.173 z"
         id="path35" /></clipPath><clipPath
       id="clipPath39"><path
         d="M 0,842 L 595,842 L 595,0.11 L 0,0.11 L 0,842 z"
         id="path41" /></clipPath><clipPath
       id="clipPath45"><path
         d="M 0,841.98 L 595.2,841.98 L 595.2,0 L 0,0 L 0,841.98 z"
         id="path47" /></clipPath><clipPath
       id="clipPath69"><path
         d="M 409.441,126.252 L 409.441,82.622 L 557.237,82.622 L 557.237,126.252"
         id="path71" /></clipPath><clipPath
       id="clipPath101"><path
         d="M 409.441,126.252 L 409.441,82.622 L 557.237,82.622 L 557.237,126.252"
         id="path103" /></clipPath><clipPath
       id="clipPath113"><path
         d="M 0,842 L 595,842 L 595,0.11 L 0,0.11 L 0,842 z"
         id="path115" /></clipPath><clipPath
       id="clipPath119"><path
         d="M 0,841.98 L 595.2,841.98 L 595.2,0 L 0,0 L 0,841.98 z"
         id="path121" /></clipPath></defs><g
     transform="matrix(1.25,0,0,-1.25,-511.80125,157.815)"
     id="g11"><g
       transform="translate(1.4705494,-0.9803663)"
       id="g2510"><path
         d="M 426.252,119.898 C 422.873,121.398 420.858,121.98 418.857,121.98 C 416.757,121.98 415.412,121.228 415.412,120.066 C 415.412,116.559 427.309,117.546 427.309,109.434 C 427.309,104.961 423.556,102.362 418.342,102.362 C 414.252,102.362 412.238,103.42 409.918,104.618 L 409.918,109.636 C 413.264,107.419 415.312,106.636 417.893,106.636 C 420.131,106.636 421.338,107.419 421.338,108.784 C 421.338,112.603 409.441,111.204 409.441,119.557 C 409.441,123.585 412.922,126.252 418.342,126.252 C 420.958,126.252 423.318,125.703 426.252,124.441 L 426.252,119.898"
         id="path53"
         style="fill:#fff;fill-opacity:1;fill-rule:nonzero;stroke:none" /><path
         d="M 442.909,103.428 C 440.926,102.709 439.249,102.366 437.576,102.366 C 432.035,102.366 428.453,105.593 428.453,110.503 C 428.453,115.323 432.174,118.728 437.37,118.728 C 438.975,118.728 441.027,118.317 442.668,117.706 L 442.668,114.016 C 441.369,114.706 439.865,115.084 438.634,115.084 C 435.66,115.084 433.747,113.297 433.747,110.539 C 433.747,107.742 435.628,105.901 438.462,105.901 C 439.658,105.901 440.721,106.175 442.909,106.994 L 442.909,103.428"
         id="path55"
         style="fill:#fff;fill-opacity:1;fill-rule:nonzero;stroke:none" /><path
         d="M 486.109,112.311 C 486.312,114.501 487.584,115.767 489.532,115.767 C 491.447,115.767 492.745,114.465 492.95,112.311 L 486.109,112.311 z M 489.19,118.723 C 484.328,118.723 480.867,115.289 480.867,110.457 C 480.867,105.589 484.466,102.366 490.013,102.366 C 491.242,102.366 494.214,102.366 497.045,104.461 L 497.045,107.542 C 494.726,105.89 493.192,105.321 491.212,105.321 C 488.087,105.321 486.176,106.938 486.003,109.698 L 497.324,109.698 C 497.559,115.459 493.777,118.723 489.19,118.723"
         id="path57"
         style="fill:#fff;fill-opacity:1;fill-rule:nonzero;stroke:none" /><path
         d="M 499.239,102.653 L 504.1892,102.653 L 504.1892,118.432 L 499.239,118.432 L 499.239,102.653 z"
         id="path59"
         style="fill:#fff;fill-opacity:1;fill-rule:nonzero;stroke:none" /><path
         d="M 517.964,106.966 C 516.933,106.038 516.076,105.666 515.019,105.666 C 512.688,105.666 511.213,107.584 511.213,110.459 C 511.213,113.609 512.688,115.425 515.183,115.425 C 516.076,115.425 517.242,115.014 517.964,114.499 L 517.964,106.966 z M 517.964,125.961 L 517.964,117.74 C 516.627,118.387 515.294,118.728 513.853,118.728 C 509.338,118.728 506.214,115.391 506.214,110.562 C 506.214,105.837 509.338,102.362 513.574,102.362 C 515.254,102.362 516.552,102.802 517.964,103.928 L 517.964,102.658 L 522.913,102.658 L 522.913,125.961 L 517.964,125.961"
         id="path61"
         style="fill:#fff;fill-opacity:1;fill-rule:nonzero;stroke:none" /><path
         d="M 530.24,112.311 C 530.446,114.501 531.711,115.767 533.656,115.767 C 535.574,115.767 536.885,114.465 537.09,112.311 L 530.24,112.311 z M 533.318,118.723 C 528.457,118.723 525.002,115.289 525.002,110.457 C 525.002,105.589 528.601,102.366 534.142,102.366 C 535.369,102.366 538.347,102.366 541.185,104.461 L 541.185,107.542 C 538.863,105.89 537.326,105.321 535.337,105.321 C 532.229,105.321 530.31,106.938 530.137,109.698 L 541.453,109.698 C 541.688,115.459 537.903,118.723 533.318,118.723"
         id="path63"
         style="fill:#fff;fill-opacity:1;fill-rule:nonzero;stroke:none" /><g
         id="g65"><g
           clip-path="url(#clipPath69)"
           id="g67"><path
             d="M 548.863,113.914 L 548.936,113.914 C 550.405,117.198 552.05,118.738 553.959,118.738 C 554.948,118.738 555.801,118.361 557.237,117.299 L 555.875,112.924 C 554.575,113.744 553.721,114.087 552.936,114.087 C 551.12,114.087 549.958,112.375 548.863,109.481 L 548.863,102.674 L 543.907,102.674 L 543.907,118.449 L 548.863,118.449 L 548.863,113.914"
             id="path73"
             style="fill:#fff;fill-opacity:1;fill-rule:nonzero;stroke:none" /><path
             d="M 504.421,125.07 C 504.886,123.844 504.049,122.134 502.558,121.254 C 501.061,120.375 499.479,120.654 499.018,121.88 C 498.548,123.108 499.381,124.82 500.876,125.695 C 502.369,126.579 503.952,126.299 504.421,125.07"
             id="path75"
             style="fill:#fff;fill-opacity:1;fill-rule:nonzero;stroke:none" /></g></g><path
         d="M 460.738,112.696 C 460.738,116.972 457.832,118.723 454.964,118.723 C 453.014,118.723 451.411,117.9 449.977,116.085 L 449.909,116.085 L 449.909,125.961 L 444.954,125.961 L 444.954,102.699 L 449.909,102.699 L 449.909,112.696 C 451.068,114.373 452.058,115.09 453.219,115.09 C 454.76,115.09 455.784,113.994 455.784,111.637 L 455.784,106.094 C 457.446,106.948 459.135,107.472 460.738,107.667 L 460.738,112.696"
         id="path77"
         style="fill:#fff;fill-opacity:1;fill-rule:nonzero;stroke:none" /><path
         d="M 473.166,118.728 C 471.148,118.728 469.607,117.978 468.03,116.174 L 468.03,118.432 L 463.077,118.432 L 463.077,107.709 C 464.793,107.538 466.982,106.751 468.03,105.451 L 468.03,112.82 C 469.332,114.774 470.256,115.425 471.488,115.425 C 472.891,115.425 473.957,114.499 473.957,112.274 L 473.957,102.694 L 478.911,102.694 L 478.911,112.684 C 478.911,117.331 475.629,118.728 473.166,118.728"
         id="path79"
         style="fill:#fff;fill-opacity:1;fill-rule:nonzero;stroke:none" /><path
         d="M 481.647,98.163 L 475.891,98.163 L 475.891,94.073 L 481.444,94.073 L 481.444,92.318 L 475.891,92.318 L 475.891,88.099 L 481.819,88.099 L 481.819,86.346 L 473.961,86.346 L 473.961,99.914 L 481.647,99.914 L 481.647,98.163"
         id="path81"
         style="fill:#fff;fill-opacity:1;fill-rule:nonzero;stroke:none" /><path
         d="M 486.348,86.338 L 488.1111,86.338 L 488.1111,99.918 L 486.348,99.918 L 486.348,86.338 z"
         id="path83"
         style="fill:#fff;fill-opacity:1;fill-rule:nonzero;stroke:none" /><path
         d="M 496.84,93.944 C 498.09,93.944 498.865,93.083 498.923,91.73 L 494.433,91.73 C 494.676,93.143 495.489,93.944 496.84,93.944 z M 494.401,90.553 L 500.682,90.553 C 500.682,93.864 499.169,95.462 496.8,95.462 C 494.342,95.462 492.635,93.645 492.635,90.935 C 492.635,88.458 494.177,86.171 496.953,86.171 C 498.466,86.171 499.444,86.507 500.527,87.226 L 500.527,88.942 C 499.481,88.257 498.466,87.862 497.398,87.862 C 495.69,87.862 494.676,88.778 494.401,90.553"
         id="path85"
         style="fill:#fff;fill-opacity:1;fill-rule:nonzero;stroke:none" /><path
         d="M 512.195,92.942 C 511.181,93.636 510.504,93.84 509.732,93.84 C 508.118,93.84 507,92.602 507,90.789 C 507,88.942 508.19,87.829 510.027,87.829 C 510.783,87.829 511.503,88.025 512.392,88.423 L 512.392,86.684 C 511.798,86.404 510.666,86.171 509.732,86.171 C 507.062,86.171 505.209,88.007 505.209,90.631 C 505.209,93.592 506.902,95.462 509.611,95.462 C 510.646,95.462 511.342,95.221 512.195,94.846 L 512.195,92.942"
         id="path87"
         style="fill:#fff;fill-opacity:1;fill-rule:nonzero;stroke:none" /><path
         d="M 520.228,95.291 L 523.058,95.291 L 523.058,93.702 L 520.228,93.702 L 520.228,89.11 C 520.228,88.059 520.989,87.755 521.503,87.755 C 522.141,87.755 522.799,87.978 523.513,88.419 L 523.513,86.765 C 522.894,86.424 521.944,86.171 521.362,86.171 C 519.442,86.171 518.471,87.363 518.471,88.977 L 518.471,93.702 L 516.916,93.702 L 516.916,93.899 L 520.228,97.14 L 520.228,95.291"
         id="path89"
         style="fill:#fff;fill-opacity:1;fill-rule:nonzero;stroke:none" /><path
         d="M 529.8,95.291 L 529.8,93.22 L 529.836,93.22 C 530.735,94.805 531.59,95.462 532.422,95.462 C 533.14,95.462 533.812,95.125 534.551,94.426 L 533.617,92.872 C 533.08,93.403 532.386,93.769 531.967,93.769 C 530.753,93.769 529.8,92.535 529.8,91.006 L 529.8,86.338 L 528.039,86.338 L 528.039,95.291 L 529.8,95.291"
         id="path91"
         style="fill:#fff;fill-opacity:1;fill-rule:nonzero;stroke:none" /><path
         d="M 552.618,92.942 C 551.599,93.636 550.923,93.84 550.146,93.84 C 548.536,93.84 547.427,92.602 547.427,90.789 C 547.427,88.942 548.618,87.829 550.444,87.829 C 551.201,87.829 551.917,88.025 552.818,88.423 L 552.818,86.684 C 552.211,86.404 551.078,86.171 550.146,86.171 C 547.48,86.171 545.619,88.007 545.619,90.631 C 545.619,93.592 547.32,95.462 550.029,95.462 C 551.066,95.462 551.755,95.221 552.618,94.846 L 552.618,92.942"
         id="path93"
         style="fill:#fff;fill-opacity:1;fill-rule:nonzero;stroke:none" /><path
         d="M 539.225,86.338 L 540.9878,86.338 L 540.9878,95.2907 L 539.225,95.2907 L 539.225,86.338 z"
         id="path95"
         style="fill:#fff;fill-opacity:1;fill-rule:nonzero;stroke:none" /><g
         id="g97"><g
           clip-path="url(#clipPath101)"
           id="g99"><path
             d="M 541.047,98.507 C 541.219,98.075 540.918,97.464 540.388,97.153 C 539.854,96.841 539.289,96.941 539.128,97.374 C 538.967,97.811 539.259,98.417 539.795,98.729 C 540.324,99.045 540.886,98.944 541.047,98.507"
             id="path105"
             style="fill:#fff;fill-opacity:1;fill-rule:nonzero;stroke:none" /><path
             d="M 462.13,97.783 C 461.819,97.783 461.688,97.732 461.561,97.59 C 461.511,97.535 461.491,97.479 461.473,97.367 L 459.892,91.371 C 459.521,89.268 456.938,87.168 453.571,87.168 L 448.89,87.168 L 449.702,90.249 L 452.709,90.249 C 453.016,90.249 453.256,90.363 453.457,90.587 C 453.531,90.674 453.627,90.81 453.64,90.95 L 454.888,96.189 C 455.256,98.293 457.479,100.617 460.845,100.617 L 465.639,100.617 L 465.026,97.783 L 462.13,97.783 z M 463.21,94.129 L 463.745,96.069 L 468.615,96.069 C 469.216,98.882 468.743,101.488 467.036,103.195 C 463.581,106.65 456.353,105.476 450.968,100.324 C 450.127,99.524 449.417,98.659 448.77,97.775 L 451.702,97.775 L 451.02,95.831 L 447.517,95.831 C 447.182,95.218 446.868,94.61 446.628,93.993 L 450.782,93.993 L 450.117,92.049 L 446.035,92.049 C 445.337,89.079 445.782,86.309 447.538,84.55 C 450.95,81.139 458.156,82.338 463.538,87.489 C 464.48,88.385 465.258,89.352 465.961,90.345 L 462.194,90.345 L 462.768,92.285 L 467.172,92.285 C 467.495,92.902 467.792,93.512 468.024,94.129 L 463.21,94.129"
             id="path107"
             style="fill:#fff;fill-opacity:1;fill-rule:nonzero;stroke:none" /></g></g></g></g></svg>

<?xml version="1.0" encoding="utf-8"?>
<!-- Generator: Adobe Illustrator 21.1.0, SVG Export Plug-In . SVG Version: 6.00 Build 0)  -->
<svg version="1.1" id="svg2" xmlns:svg="http://www.w3.org/2000/svg"
	 xmlns="http://www.w3.org/2000/svg" xmlns:xlink="http://www.w3.org/1999/xlink" x="0px" y="0px" viewBox="0 0 188.7 57"
	 style="enable-background:new 0 0 188.7 57;" xml:space="preserve">
<style type="text/css">
	.st0{fill:#FFFFFF;}
	.st1{clip-path:url(#SVGID_2_);}
	.st2{clip-path:url(#SVGID_4_);}
</style>
<g id="g11" transform="matrix(1.25,0,0,-1.25,-511.80125,157.815)">
	<g id="g2510" transform="translate(1.4705494,-0.9803663)">
		<path id="path53" class="st0" d="M426.3,119.9c-3.4,1.5-5.4,2.1-7.4,2.1c-2.1,0-3.4-0.8-3.4-1.9c0-3.5,11.9-2.5,11.9-10.6
			c0-4.5-3.8-7.1-9-7.1c-4.1,0-6.1,1.1-8.4,2.3v5c3.3-2.2,5.4-3,8-3c2.2,0,3.4,0.8,3.4,2.1c0,3.8-11.9,2.4-11.9,10.8
			c0,4,3.5,6.7,8.9,6.7c2.6,0,5-0.5,7.9-1.8V119.9"/>
		<path id="path55" class="st0" d="M442.9,103.4c-2-0.7-3.7-1.1-5.3-1.1c-5.5,0-9.1,3.2-9.1,8.1c0,4.8,3.7,8.2,8.9,8.2
			c1.6,0,3.7-0.4,5.3-1V114c-1.3,0.7-2.8,1.1-4,1.1c-3,0-4.9-1.8-4.9-4.5c0-2.8,1.9-4.6,4.7-4.6c1.2,0,2.3,0.3,4.4,1.1V103.4"/>
		<path id="path57" class="st0" d="M486.1,112.3c0.2,2.2,1.5,3.5,3.4,3.5c1.9,0,3.2-1.3,3.4-3.5H486.1z M489.2,118.7
			c-4.9,0-8.3-3.4-8.3-8.3c0-4.9,3.6-8.1,9.1-8.1c1.2,0,4.2,0,7,2.1v3.1c-2.3-1.7-3.9-2.2-5.8-2.2c-3.1,0-5,1.6-5.2,4.4h11.3
			C497.6,115.5,493.8,118.7,489.2,118.7"/>
		<path id="path59" class="st0" d="M499.2,102.7h5v15.8h-5V102.7z"/>
		<path id="path61" class="st0" d="M518,107c-1-0.9-1.9-1.3-2.9-1.3c-2.3,0-3.8,1.9-3.8,4.8c0,3.2,1.5,5,4,5c0.9,0,2.1-0.4,2.8-0.9
			V107z M518,126v-8.2c-1.3,0.6-2.7,1-4.1,1c-4.5,0-7.6-3.3-7.6-8.2c0-4.7,3.1-8.2,7.4-8.2c1.7,0,3,0.4,4.4,1.6v-1.3h4.9V126H518"/>
		<path id="path63" class="st0" d="M530.2,112.3c0.2,2.2,1.5,3.5,3.4,3.5c1.9,0,3.2-1.3,3.4-3.5H530.2z M533.3,118.7
			c-4.9,0-8.3-3.4-8.3-8.3c0-4.9,3.6-8.1,9.1-8.1c1.2,0,4.2,0,7,2.1v3.1c-2.3-1.7-3.9-2.2-5.8-2.2c-3.1,0-5,1.6-5.2,4.4h11.3
			C541.7,115.5,537.9,118.7,533.3,118.7"/>
		<g id="g65">
			<g>
				<defs>
					<polyline id="SVGID_1_" points="409.4,126.3 409.4,82.6 557.2,82.6 557.2,126.3 					"/>
				</defs>
				<clipPath id="SVGID_2_">
					<use xlink:href="#SVGID_1_"  style="overflow:visible;"/>
				</clipPath>
				<g id="g67" class="st1">
					<path id="path73" class="st0" d="M548.9,113.9L548.9,113.9c1.5,3.3,3.2,4.8,5.1,4.8c1,0,1.8-0.4,3.3-1.4l-1.4-4.4
						c-1.3,0.8-2.2,1.2-2.9,1.2c-1.8,0-3-1.7-4.1-4.6v-6.8h-5v15.8h5V113.9"/>
					<path id="path75" class="st0" d="M504.4,125.1c0.5-1.2-0.4-2.9-1.9-3.8c-1.5-0.9-3.1-0.6-3.5,0.6c-0.5,1.2,0.4,2.9,1.9,3.8
						C502.4,126.6,504,126.3,504.4,125.1"/>
				</g>
			</g>
		</g>
		<path id="path77" class="st0" d="M460.7,112.7c0,4.3-2.9,6-5.8,6c-1.9,0-3.6-0.8-5-2.6h-0.1v9.9h-5v-23.3h5v10
			c1.2,1.7,2.1,2.4,3.3,2.4c1.5,0,2.6-1.1,2.6-3.5v-5.5c1.7,0.9,3.4,1.4,5,1.6V112.7"/>
		<path id="path79" class="st0" d="M473.2,118.7c-2,0-3.6-0.8-5.1-2.6v2.3h-5v-10.7c1.7-0.2,3.9-1,5-2.3v7.4c1.3,2,2.2,2.6,3.5,2.6
			c1.4,0,2.5-0.9,2.5-3.2v-9.6h5v10C478.9,117.3,475.6,118.7,473.2,118.7"/>
		<path id="path81" class="st0" d="M481.6,98.2h-5.8v-4.1h5.6v-1.8h-5.6v-4.2h5.9v-1.8H474v13.6h7.7V98.2"/>
		<path id="path83" class="st0" d="M486.3,86.3h1.8v13.6h-1.8V86.3z"/>
		<path id="path85" class="st0" d="M496.8,93.9c1.2,0,2-0.9,2.1-2.2h-4.5C494.7,93.1,495.5,93.9,496.8,93.9z M494.4,90.6h6.3
			c0,3.3-1.5,4.9-3.9,4.9c-2.5,0-4.2-1.8-4.2-4.5c0-2.5,1.5-4.8,4.3-4.8c1.5,0,2.5,0.3,3.6,1.1v1.7c-1-0.7-2.1-1.1-3.1-1.1
			C495.7,87.9,494.7,88.8,494.4,90.6"/>
		<path id="path87" class="st0" d="M512.2,92.9c-1,0.7-1.7,0.9-2.5,0.9c-1.6,0-2.7-1.2-2.7-3.1c0-1.8,1.2-3,3-3
			c0.8,0,1.5,0.2,2.4,0.6v-1.7c-0.6-0.3-1.7-0.5-2.7-0.5c-2.7,0-4.5,1.8-4.5,4.5c0,3,1.7,4.8,4.4,4.8c1,0,1.7-0.2,2.6-0.6V92.9"/>
		<path id="path89" class="st0" d="M520.2,95.3h2.8v-1.6h-2.8v-4.6c0-1.1,0.8-1.4,1.3-1.4c0.6,0,1.3,0.2,2,0.7v-1.7
			c-0.6-0.3-1.6-0.6-2.2-0.6c-1.9,0-2.9,1.2-2.9,2.8v4.7h-1.6v0.2l3.3,3.2V95.3"/>
		<path id="path91" class="st0" d="M529.8,95.3v-2.1h0c0.9,1.6,1.8,2.2,2.6,2.2c0.7,0,1.4-0.3,2.1-1l-0.9-1.6
			c-0.5,0.5-1.2,0.9-1.7,0.9c-1.2,0-2.2-1.2-2.2-2.8v-4.7H528v9H529.8"/>
		<path id="path93" class="st0" d="M552.6,92.9c-1,0.7-1.7,0.9-2.5,0.9c-1.6,0-2.7-1.2-2.7-3.1c0-1.8,1.2-3,3-3
			c0.8,0,1.5,0.2,2.4,0.6v-1.7c-0.6-0.3-1.7-0.5-2.7-0.5c-2.7,0-4.5,1.8-4.5,4.5c0,3,1.7,4.8,4.4,4.8c1,0,1.7-0.2,2.6-0.6V92.9"/>
		<path id="path95" class="st0" d="M539.2,86.3h1.8v9h-1.8V86.3z"/>
		<g id="g97">
			<g>
				<defs>
					<polyline id="SVGID_3_" points="409.4,126.3 409.4,82.6 557.2,82.6 557.2,126.3 					"/>
				</defs>
				<clipPath id="SVGID_4_">
					<use xlink:href="#SVGID_3_"  style="overflow:visible;"/>
				</clipPath>
				<g id="g99" class="st2">
					<path id="path105" class="st0" d="M541,98.5c0.2-0.4-0.1-1-0.7-1.4c-0.5-0.3-1.1-0.2-1.3,0.2c-0.2,0.4,0.1,1,0.7,1.4
						C540.3,99,540.9,98.9,541,98.5"/>
					<path id="path107" class="st0" d="M462.1,97.8c-0.3,0-0.4-0.1-0.6-0.2c-0.1-0.1-0.1-0.1-0.1-0.2l-1.6-6c-0.4-2.1-3-4.2-6.3-4.2
						h-4.7l0.8,3.1h3c0.3,0,0.5,0.1,0.7,0.3c0.1,0.1,0.2,0.2,0.2,0.4l1.2,5.2c0.4,2.1,2.6,4.4,6,4.4h4.8l-0.6-2.8H462.1z
						 M463.2,94.1l0.5,1.9h4.9c0.6,2.8,0.1,5.4-1.6,7.1c-3.5,3.5-10.7,2.3-16.1-2.9c-0.8-0.8-1.6-1.7-2.2-2.5h2.9l-0.7-1.9h-3.5
						c-0.3-0.6-0.6-1.2-0.9-1.8h4.2l-0.7-1.9H446c-0.7-3-0.3-5.7,1.5-7.5c3.4-3.4,10.6-2.2,16,2.9c0.9,0.9,1.7,1.9,2.4,2.9h-3.8
						l0.6,1.9h4.4c0.3,0.6,0.6,1.2,0.9,1.8H463.2"/>
				</g>
			</g>
		</g>
	</g>
</g>
</svg>
